X:1
T:Cayman, 98.98 D
T:Cayman, 98.98 D
T:William Batchelder Bradbury, 1864
T:Public Domain Courtesy of the Cyber Hymnal™
C:William Batchelder Bradbury, 1864
Z:Public Domain
Z:Courtesy of the Cyber Hymnal™
%%score ( 1 2 ) 3
L:1/8
Q:1/4=90
M:6/8
K:A
V:1 treble 
V:2 treble 
V:3 bass 
V:1
 ([A,C]/[B,D]/) | [CE][CE][CE] [DF][EG][FA] | [EA]3 [CE]2 [EA] | [GB][GB][GB] [GB][FA][GB] | %4
 [Ac]3- [Ac]2 ([A,C]/[B,D]/) | [CE][CE][CE] [DF][EG][FA] | x6 | [EA]3 [CE]2 ([EA]/[EA]/) | %8
 [Ec][DB][CA] [DB][CA][B,G] | [CA]3- [CA]2 ([EG]/[FA]/) | [GB][GB][GB] [GB][Ac][GB] | %11
 [GB]3 [EG]2 ([GB]/[GB]/) | [GB][FA][EG] [FA][EG][^DF] | E3- E2 ([A,C]/[B,D]/) | %14
 [CE][CE][CE] [DF][EG][FA] | [EA]3 [CE]2 ([EA]/[EA]/) | [Ec][DB][CA] ([DB][CA])[B,G] | %17
 [CA]3- [CA]2 |] %18
V:2
 x | x6 | x6 | x6 | x6 | x6 | x6 | x6 | x6 | x6 | x6 | x6 | x6 | E3- E2 x | x6 | x6 | x6 | x5 |] %18
V:3
 [A,,A,] | [A,,A,][A,,A,][A,,A,] [D,A,][D,A,][D,A,] | [A,,C]3 [A,,A,]2 [A,,C] | %3
 [E,B,][E,B,][E,B,] [E,E][E,E][E,E] | [A,E]3- [A,E]2 ([A,,A,]/[A,,A,]/) | %5
 [A,,A,][A,,A,][A,,A,] [D,A,][D,A,][D,A,] | [A,,C]3 [A,,A,]2 ([C,A,]/[C,A,]/) | %7
 [E,A,][E,G,][E,A,] [E,G,][E,A,][E,B,] | [A,,A,]3- [A,,A,]2 E, | E,E,E, E,E,E, | E,3 E,2 (E,/E,/) | %11
 B,,B,,B,, B,,B,,B,, | E,3- E,2 [A,,A,]/[A,,A,]/ | [A,,A,][A,,A,][A,,A,] [D,A,][D,A,][D,A,] | %14
 [A,,C]3 [A,,A,]2 ([C,A,]/[C,A,]/) | [E,A,][E,B,][E,C] ([E,G,][E,A,])[E,B,] | %16
 [A,,A,]3- [A,,A,]2 x | x5 |] %18

